static/img/kroki/ef19e8814119e3523b7efdb7f09dde36.svg

<?xml version="1.0" encoding="us-ascii" standalone="no"?><svg xmlns="http://www.w3.org/2000/svg" xmlns:xlink="http://www.w3.org/1999/xlink" contentStyleType="text/css" height="352px" preserveAspectRatio="none" style="width:423px;height:352px;" version="1.1" viewBox="0 0 423 352" width="423px" zoomAndPan="magnify"><defs/><g><!--class aws_autoscaling_group--><g id="elem_aws_autoscaling_group"><rect codeLine="22" fill="#3D176E" height="39.7891" id="aws_autoscaling_group" rx="2.5" ry="2.5" style="stroke:#000D19;stroke-width:0.5;" width="236" x="21.5" y="306.37"/><ellipse cx="36.5" cy="326.2645" fill="#ADD1B2" rx="11" ry="11" style="stroke:#181818;stroke-width:1.0;"/><path d="M39.4688,331.9052 Q38.8906,332.202 38.25,332.3427 Q37.6094,332.4989 36.9063,332.4989 Q34.4063,332.4989 33.0781,330.8583 Q31.7656,329.202 31.7656,326.077 Q31.7656,322.952 33.0781,321.2958 Q34.4063,319.6395 36.9063,319.6395 Q37.6094,319.6395 38.25,319.7958 Q38.9063,319.952 39.4688,320.2489 L39.4688,322.9677 Q38.8438,322.3895 38.25,322.1239 Q37.6563,321.8427 37.0313,321.8427 Q35.6875,321.8427 35,322.9208 Q34.3125,323.9833 34.3125,326.077 Q34.3125,328.1708 35,329.2489 Q35.6875,330.3114 37.0313,330.3114 Q37.6563,330.3114 38.25,330.0458 Q38.8438,329.7645 39.4688,329.1864 L39.4688,331.9052 Z " fill="#000000"/><text fill="#D9B8FF" font-family="Helvetica" font-size="17" lengthAdjust="spacing" textLength="194" x="55.5" y="332.1498">aws_autoscaling_group</text></g><!--class aws_ecs_capacity_provider--><g id="elem_aws_ecs_capacity_provider"><rect codeLine="24" fill="#3D176E" height="39.7891" id="aws_ecs_capacity_provider" rx="2.5" ry="2.5" style="stroke:#000D19;stroke-width:0.5;" width="265" x="7" y="206.58"/><ellipse cx="22" cy="226.4745" fill="#ADD1B2" rx="11" ry="11" style="stroke:#181818;stroke-width:1.0;"/><path d="M24.9688,232.1152 Q24.3906,232.412 23.75,232.5527 Q23.1094,232.7089 22.4063,232.7089 Q19.9063,232.7089 18.5781,231.0683 Q17.2656,229.412 17.2656,226.287 Q17.2656,223.162 18.5781,221.5058 Q19.9063,219.8495 22.4063,219.8495 Q23.1094,219.8495 23.75,220.0058 Q24.4063,220.162 24.9688,220.4589 L24.9688,223.1777 Q24.3438,222.5995 23.75,222.3339 Q23.1563,222.0527 22.5313,222.0527 Q21.1875,222.0527 20.5,223.1308 Q19.8125,224.1933 19.8125,226.287 Q19.8125,228.3808 20.5,229.4589 Q21.1875,230.5214 22.5313,230.5214 Q23.1563,230.5214 23.75,230.2558 Q24.3438,229.9745 24.9688,229.3964 L24.9688,232.1152 Z " fill="#000000"/><text fill="#D9B8FF" font-family="Helvetica" font-size="17" lengthAdjust="spacing" textLength="223" x="41" y="232.3598">aws_ecs_capacity_provider</text></g><!--class aws_ecs_cluster--><g id="elem_aws_ecs_cluster"><rect codeLine="26" fill="#3D176E" height="39.7891" id="aws_ecs_cluster" rx="2.5" ry="2.5" style="stroke:#000D19;stroke-width:0.5;" width="175" x="52" y="7"/><ellipse cx="67" cy="26.8945" fill="#ADD1B2" rx="11" ry="11" style="stroke:#181818;stroke-width:1.0;"/><path d="M69.9688,32.5352 Q69.3906,32.832 68.75,32.9727 Q68.1094,33.1289 67.4063,33.1289 Q64.9063,33.1289 63.5781,31.4883 Q62.2656,29.832 62.2656,26.707 Q62.2656,23.582 63.5781,21.9258 Q64.9063,20.2695 67.4063,20.2695 Q68.1094,20.2695 68.75,20.4258 Q69.4063,20.582 69.9688,20.8789 L69.9688,23.5977 Q69.3438,23.0195 68.75,22.7539 Q68.1563,22.4727 67.5313,22.4727 Q66.1875,22.4727 65.5,23.5508 Q64.8125,24.6133 64.8125,26.707 Q64.8125,28.8008 65.5,29.8789 Q66.1875,30.9414 67.5313,30.9414 Q68.1563,30.9414 68.75,30.6758 Q69.3438,30.3945 69.9688,29.8164 L69.9688,32.5352 Z " fill="#000000"/><text fill="#D9B8FF" font-family="Helvetica" font-size="17" lengthAdjust="spacing" textLength="133" x="86" y="32.7798">aws_ecs_cluster</text></g><!--class aws_ecs_service--><g id="elem_aws_ecs_service"><rect codeLine="28" fill="#3D176E" height="39.7891" id="aws_ecs_service" rx="2.5" ry="2.5" style="stroke:#000D19;stroke-width:0.5;" width="177" x="51" y="106.79"/><ellipse cx="66" cy="126.6845" fill="#ADD1B2" rx="11" ry="11" style="stroke:#181818;stroke-width:1.0;"/><path d="M68.9688,132.3252 Q68.3906,132.622 67.75,132.7627 Q67.1094,132.9189 66.4063,132.9189 Q63.9063,132.9189 62.5781,131.2783 Q61.2656,129.622 61.2656,126.497 Q61.2656,123.372 62.5781,121.7158 Q63.9063,120.0595 66.4063,120.0595 Q67.1094,120.0595 67.75,120.2158 Q68.4063,120.372 68.9688,120.6689 L68.9688,123.3877 Q68.3438,122.8095 67.75,122.5439 Q67.1563,122.2627 66.5313,122.2627 Q65.1875,122.2627 64.5,123.3408 Q63.8125,124.4033 63.8125,126.497 Q63.8125,128.5908 64.5,129.6689 Q65.1875,130.7314 66.5313,130.7314 Q67.1563,130.7314 67.75,130.4658 Q68.3438,130.1845 68.9688,129.6064 L68.9688,132.3252 Z " fill="#000000"/><text fill="#D9B8FF" font-family="Helvetica" font-size="17" lengthAdjust="spacing" textLength="135" x="85" y="132.5698">aws_ecs_service</text></g><!--class aws_ecs_task--><g id="elem_aws_ecs_task"><rect codeLine="30" fill="#3D176E" height="39.7891" id="aws_ecs_task" rx="2.5" ry="2.5" style="stroke:#000D19;stroke-width:0.5;" width="154" x="262.5" y="106.79"/><ellipse cx="277.5" cy="126.6845" fill="#ADD1B2" rx="11" ry="11" style="stroke:#181818;stroke-width:1.0;"/><path d="M280.4688,132.3252 Q279.8906,132.622 279.25,132.7627 Q278.6094,132.9189 277.9063,132.9189 Q275.4063,132.9189 274.0781,131.2783 Q272.7656,129.622 272.7656,126.497 Q272.7656,123.372 274.0781,121.7158 Q275.4063,120.0595 277.9063,120.0595 Q278.6094,120.0595 279.25,120.2158 Q279.9063,120.372 280.4688,120.6689 L280.4688,123.3877 Q279.8438,122.8095 279.25,122.5439 Q278.6563,122.2627 278.0313,122.2627 Q276.6875,122.2627 276,123.3408 Q275.3125,124.4033 275.3125,126.497 Q275.3125,128.5908 276,129.6689 Q276.6875,130.7314 278.0313,130.7314 Q278.6563,130.7314 279.25,130.4658 Q279.8438,130.1845 280.4688,129.6064 L280.4688,132.3252 Z " fill="#000000"/><text fill="#D9B8FF" font-family="Helvetica" font-size="17" lengthAdjust="spacing" textLength="112" x="296.5" y="132.5698">aws_ecs_task</text></g><!--link aws_ecs_capacity_provider to aws_autoscaling_group--><g id="link_aws_ecs_capacity_provider_aws_autoscaling_group"><path codeLine="32" d="M139.5,246.8 C139.5,263.94 139.5,282.85 139.5,299.99 " fill="none" id="aws_ecs_capacity_provider-to-aws_autoscaling_group" style="stroke:#1A83AF;stroke-width:2.0;"/><polygon fill="#1A83AF" points="139.5,305.99,143.5,296.99,139.5,300.99,135.5,296.99,139.5,305.99" style="stroke:#1A83AF;stroke-width:2.0;"/></g><!--link aws_ecs_cluster to aws_ecs_capacity_provider--><g id="link_aws_ecs_cluster_aws_ecs_capacity_provider"><path codeLine="33" d="M97.2,47.21 C73.8,60.37 46.83,80.25 33.5,106.79 C25.56,122.6 25.56,130.78 33.5,146.58 C46.83,173.13 68.5703,190.0689 91.9703,203.2289 " fill="none" id="aws_ecs_cluster-to-aws_ecs_capacity_provider" style="stroke:#1A83AF;stroke-width:2.0;"/><polygon fill="#1A83AF" points="97.2,206.17,91.3162,198.2718,92.8419,203.719,87.3947,205.2447,97.2,206.17" style="stroke:#1A83AF;stroke-width:2.0;"/></g><!--link aws_ecs_cluster to aws_ecs_service--><g id="link_aws_ecs_cluster_aws_ecs_service"><path codeLine="34" d="M139.5,47.22 C139.5,64.36 139.5,83.28 139.5,100.41 " fill="none" id="aws_ecs_cluster-to-aws_ecs_service" style="stroke:#1A83AF;stroke-width:2.0;"/><polygon fill="#1A83AF" points="139.5,106.41,143.5,97.41,139.5,101.41,135.5,97.41,139.5,106.41" style="stroke:#1A83AF;stroke-width:2.0;"/></g><!--link aws_ecs_cluster to aws_ecs_task--><g id="link_aws_ecs_cluster_aws_ecs_task"><path codeLine="35" d="M179.01,47.22 C214.08,64.36 259.6397,86.6448 294.6797,103.7748 " fill="none" id="aws_ecs_cluster-to-aws_ecs_task" style="stroke:#1A83AF;stroke-width:2.0;"/><polygon fill="#1A83AF" points="300.07,106.41,293.7413,98.8637,295.578,104.214,290.2277,106.0508,300.07,106.41" style="stroke:#1A83AF;stroke-width:2.0;"/></g><!--link aws_ecs_service to aws_ecs_capacity_provider--><g id="link_aws_ecs_service_aws_ecs_capacity_provider"><path codeLine="36" d="M139.5,147.01 C139.5,164.15 139.5,183.06 139.5,200.2 " fill="none" id="aws_ecs_service-to-aws_ecs_capacity_provider" style="stroke:#1A83AF;stroke-width:2.0;"/><polygon fill="#1A83AF" points="139.5,206.2,143.5,197.2,139.5,201.2,135.5,197.2,139.5,206.2" style="stroke:#1A83AF;stroke-width:2.0;"/></g><!--link aws_ecs_task to aws_ecs_capacity_provider--><g id="link_aws_ecs_task_aws_ecs_capacity_provider"><path codeLine="37" d="M299.99,147.01 C264.92,164.15 219.3597,186.4236 184.3197,203.5636 " fill="none" id="aws_ecs_task-to-aws_ecs_capacity_provider" style="stroke:#1A83AF;stroke-width:2.0;"/><polygon fill="#1A83AF" points="178.93,206.2,188.7722,205.8385,183.4214,204.003,185.257,198.6522,178.93,206.2" style="stroke:#1A83AF;stroke-width:2.0;"/></g><!--SRC=[bP9HQy8m58NV-oi2FWjsigalWqwGxKN6tDiOvPhSQ6YRb9jKSMF_VLRToD9MtMlET-yvvvAr4iYmADsE5LWiaMnaCwLB82XOGcIsKvCROZqfGGv7eJWpsbq4vb0WUyHyWqvn28dNjUAPHclPZISz0CzMP2ejZkiTWRPx2RNpg6aErYREaLfM3hqmOh8SIncIuTBUKCIZEsnWXWJI2HaC1YAUXCX5gxEzVuc5-a0M-qUR6uUDc0sB0tKsPKru8Hj5V_JEZCyWXD8hTkkzlHmpaKRwyxvOWp3RcfQGMz_6EYGqRbVYjD4A9sCXHwtmKnVCwyinsDeKAcSiXtplcjPaoJwZBqz7RbCE9N3bTcb9PhF_wDJ6v5Njsw9Of8tYsA8uiDdXkTke_zQBa_4mcRttxzlpHc62naZhvkl6JjclW-iwKTZwdsaE9xbkvXi0]--></g></svg>

<svg xmlns="http://www.w3.org/2000/svg" width="423" height="352" viewBox="0 0 423 352"><rect width="236" height="39.789" x="21.5" y="306.37" fill="#3D176E" rx="2.5" ry="2.5" style="stroke:#000d19;stroke-width:.5"/><circle cx="36.5" cy="326.264" r="11" fill="#ADD1B2" style="stroke:#181818;stroke-width:1"/><path d="M39.469 331.905q-.578.297-1.219.438-.64.156-1.344.156-2.5 0-3.828-1.64-1.312-1.657-1.312-4.782t1.312-4.781q1.328-1.656 3.828-1.656.703 0 1.344.156.656.156 1.219.453v2.719q-.625-.579-1.219-.844-.594-.281-1.219-.281-1.343 0-2.031 1.078-.687 1.062-.687 3.156t.687 3.172q.688 1.062 2.031 1.062.625 0 1.219-.265.594-.281 1.219-.86z"/><text x="55.5" y="332.15" fill="#D9B8FF" font-family="Helvetica" font-size="17" textLength="194">aws_autoscaling_group</text><rect width="265" height="39.789" x="7" y="206.58" fill="#3D176E" rx="2.5" ry="2.5" style="stroke:#000d19;stroke-width:.5"/><circle cx="22" cy="226.475" r="11" fill="#ADD1B2" style="stroke:#181818;stroke-width:1"/><path d="M24.969 232.115q-.578.297-1.219.438-.64.156-1.344.156-2.5 0-3.828-1.64-1.312-1.657-1.312-4.782t1.312-4.781q1.328-1.656 3.828-1.656.703 0 1.344.156.656.156 1.219.453v2.719q-.625-.578-1.219-.844-.594-.281-1.219-.281-1.343 0-2.031 1.078-.687 1.062-.687 3.156t.687 3.172q.688 1.062 2.031 1.062.625 0 1.219-.265.594-.281 1.219-.86z"/><text x="41" y="232.36" fill="#D9B8FF" font-family="Helvetica" font-size="17" textLength="223">aws_ecs_capacity_provider</text><rect width="175" height="39.789" x="52" y="7" fill="#3D176E" rx="2.5" ry="2.5" style="stroke:#000d19;stroke-width:.5"/><circle cx="67" cy="26.895" r="11" fill="#ADD1B2" style="stroke:#181818;stroke-width:1"/><path d="M69.969 32.535q-.578.297-1.219.438-.64.156-1.344.156-2.5 0-3.828-1.64-1.312-1.657-1.312-4.782t1.312-4.781q1.328-1.656 3.828-1.656.703 0 1.344.156.656.156 1.219.453v2.719q-.625-.578-1.219-.844-.594-.281-1.219-.281-1.344 0-2.031 1.078-.687 1.062-.687 3.156t.687 3.172q.688 1.062 2.031 1.062.625 0 1.219-.265.594-.281 1.219-.86z"/><text x="86" y="32.78" fill="#D9B8FF" font-family="Helvetica" font-size="17" textLength="133">aws_ecs_cluster</text><rect width="177" height="39.789" x="51" y="106.79" fill="#3D176E" rx="2.5" ry="2.5" style="stroke:#000d19;stroke-width:.5"/><circle cx="66" cy="126.684" r="11" fill="#ADD1B2" style="stroke:#181818;stroke-width:1"/><path d="M68.969 132.325q-.578.297-1.219.438-.64.156-1.344.156-2.5 0-3.828-1.64-1.312-1.657-1.312-4.782t1.312-4.781q1.328-1.656 3.828-1.656.703 0 1.344.156.656.156 1.219.453v2.719q-.625-.579-1.219-.844-.594-.281-1.219-.281-1.344 0-2.031 1.078-.687 1.062-.687 3.156t.687 3.172q.688 1.062 2.031 1.062.625 0 1.219-.265.594-.281 1.219-.86z"/><text x="85" y="132.57" fill="#D9B8FF" font-family="Helvetica" font-size="17" textLength="135">aws_ecs_service</text><rect width="154" height="39.789" x="262.5" y="106.79" fill="#3D176E" rx="2.5" ry="2.5" style="stroke:#000d19;stroke-width:.5"/><circle cx="277.5" cy="126.684" r="11" fill="#ADD1B2" style="stroke:#181818;stroke-width:1"/><path d="M280.469 132.325q-.578.297-1.219.438-.64.156-1.344.156-2.5 0-3.828-1.64-1.312-1.657-1.312-4.782t1.312-4.781q1.328-1.656 3.828-1.656.703 0 1.344.156.656.156 1.219.453v2.719q-.625-.579-1.219-.844-.594-.281-1.219-.281-1.344 0-2.031 1.078-.687 1.062-.687 3.156t.687 3.172q.688 1.062 2.031 1.062.625 0 1.219-.265.594-.281 1.219-.86z"/><text x="296.5" y="132.57" fill="#D9B8FF" font-family="Helvetica" font-size="17" textLength="112">aws_ecs_task</text><path fill="none" d="M139.5 246.8v53.19" style="stroke:#1a83af;stroke-width:2"/><path fill="#1A83AF" d="m139.5 305.99 4-9-4 4-4-4z" style="stroke:#1a83af;stroke-width:2"/><path fill="none" d="M97.2 47.21c-23.4 13.16-50.37 33.04-63.7 59.58-7.94 15.81-7.94 23.99 0 39.79 13.33 26.55 35.07 43.489 58.47 56.649" style="stroke:#1a83af;stroke-width:2"/><path fill="#1A83AF" d="m97.2 206.17-5.884-7.898 1.526 5.447-5.447 1.526z" style="stroke:#1a83af;stroke-width:2"/><path fill="none" d="M139.5 47.22v53.19" style="stroke:#1a83af;stroke-width:2"/><path fill="#1A83AF" d="m139.5 106.41 4-9-4 4-4-4z" style="stroke:#1a83af;stroke-width:2"/><path fill="none" d="M179.01 47.22c35.07 17.14 80.63 39.425 115.67 56.555" style="stroke:#1a83af;stroke-width:2"/><path fill="#1A83AF" d="m300.07 106.41-6.329-7.546 1.837 5.35-5.35 1.837z" style="stroke:#1a83af;stroke-width:2"/><path fill="none" d="M139.5 147.01v53.19" style="stroke:#1a83af;stroke-width:2"/><path fill="#1A83AF" d="m139.5 206.2 4-9-4 4-4-4z" style="stroke:#1a83af;stroke-width:2"/><path fill="none" d="M299.99 147.01c-35.07 17.14-80.63 39.414-115.67 56.554" style="stroke:#1a83af;stroke-width:2"/><path fill="#1A83AF" d="m178.93 206.2 9.842-.361-5.35-1.836 1.835-5.35z" style="stroke:#1a83af;stroke-width:2"/></svg>
